X:1
T:A Shepherd Band Their Flocks
T:Anonymous, before 1912
T:A Shepherd Band Their Flocks
T:Public Domain
T:Public Domain
C:Anonymous, before 1912
Z:Public Domain
%%score ( 1 2 ) ( 3 4 )
L:1/8
M:4/4
K:G
V:1 treble 
V:2 treble 
V:3 bass 
V:4 bass 
V:1
 [Dd]2 | [Dd]2 [DB]2 [EG]2 [FA]2 | ([DB][Ec] [Fd]4) [DB]2 | [Ac]2 [GB]2 z2 [Gd]2 | %4
w: 1.~A|shep- herd band their|flocks * * are|keep- ing, And|
w: 2.~Glad|tid- ings of great|joy * * he|bring- eth, The|
w: 3.~“To|you, this day, is|born * * a|Sav- ior, Your|
w: 4.~“On|earth be peace with|mer- * * cy|blend- ing, Good-|
w: 5.~Through|field and wood the|song * * re-|sound- eth, O’er|
w: 6.~The|shep- herds view the|host * * re-|turn- ing, Their|
w: 7.~In|haste they seek the|heav’n- * * ly|Stran- ger; They|
w: 8.~Now|ev- ery voice with|rap- * * ture|swell- eth, For|
 [Fd]3 [GB] [EA]3 [EG] | [Gc][FA] [Fd]2 [DB]2 [DB]2 | [GB][GB][GB][Gc] [Fd]2 [Gd]2 | d2 cB A4 | %8
w: gen- tle lambs are|sweet- ly sleep- ing; When|sud- den- ly they all be-|hold * * *|
w: a- zure vault with|an- thems ring- eth; Im-|man- u- el a- wakes the|song, * * *|
w: Pro- phet, Priest and|King for- ev- er; All|glo- ry be to God,” they|cry; * * *|
w: will to men, and|love un- end- ing”; Thus|sweet- ly sing the an- gel|throng, * * *|
w: hill and vale the|chor- us bound- eth; Ex-|ult- ing- ly the e- choes|roll, * * *|
w: hearts with ho- ly|ar- dor burn- ing; To|Beth- le- hem they wend their|way, * * *|
w: find the Babe laid|in a man- ger; With|won- der and with awe they|fall, * * *|
w: Christ the Lord with|mor- tals dwell- eth; Let|men and an- gels Him a-|dore, * * *|
 (G2 F[DE] D2) D2 | [DG]2 [EG]2 [EA]2 [FA]2 | ([GB][Ac] [Bd]4) [GB]2 | %11
w: An * * * an-|robes, with harp of|gold. * * *|
w: And * * * count-|glo- rious theme pro-|long. * * *|
w: “All * * * glo-|God,” let earth re-|ply. * * *|
w: And * * * all|host re- hearse the|song. * * *|
w: And * * * hymns|spread from pole to|pole. * * *|
w: Re- * * * peat-|tongues th’an- gel- ic|lay. * * *|
w: And * * * joy-|dore Him, Lord of|all. * * *|
w: And * * * shout|san- nas ev- er-|more. * * *|
 ([GB]2 [FA][EG] [GB]2) [DA]2 | [DG]4 z2 |] %13
w: ||
w: ||
w: ||
w: ||
w: ||
w: ||
w: ||
w: ||
V:2
 x2 | x8 | x8 | x8 | x8 | x8 | x8 | F8 | B,3 D2 D2 x | x8 | x8 | x8 | x6 |] %13
w: ||||||||gel in bright|||||
w: ||||||||less hosts the|||||
w: ||||||||ry be to|||||
w: ||||||||the heav’n- ly|||||
w: ||||||||of tri- umph|||||
w: ||||||||ing with glad|||||
w: ||||||||ful- ly a-|||||
w: ||||||||their loud ho-|||||
V:3
 [G,B,]2 | [F,A,]2 [G,B,]2 [E,B,]2 [D,D]2 | ([G,B,]2 [F,A,][E,G,] [D,A,]2) [G,B,]2 | %3
 [A,,E,]2 E,2 z2 [B,,D]2 | [D,A,]3 E, [A,C]3 [E,B,] | [C,E,]D, [D,A,]2 [G,,G,]2 [G,B,]2 | %6
 [G,D][G,D][G,D][E,G,] [D,A,]2 [B,,B,]2 | A,4 D4 | (E,2 D,C, B,,2) [G,B,]2 | %9
 [G,B,]2 [E,B,]2 [A,C]2 [D,D]2 | (G,2 F,E, D,2) [E,D]2 | (B,4 D2) [D,C]2 | [G,,G,B,]4 z2 |] %13
V:4
 x2 | x8 | x8 | x2 E,2 x4 | x3 E, x4 | x D, x6 | x8 | D,8 | G,8 | x8 | D6 x2 | G,6 x2 | x6 |] %13

